assets/cup-fill.svg

<svg xmlns="http://www.w3.org/2000/svg" fill="none" viewBox="0 0 27 28">
  <path fill="#2A2238" d="M0 2C0 1.46957.189642.960859.527208.585786.864773.210714 1.32261 0 1.8 0h19.8c.4774 0 .9352.210714 1.2728.585786C23.2104.960859 23.4 1.46957 23.4 2v2h.9c.7161 0 1.4028.31607 1.9092.87868C26.7155 5.44129 27 6.20435 27 7v14c0 .7956-.2845 1.5587-.7908 2.1213-.5064.5626-1.1931.8787-1.9092.8787h-.99c-.2075 1.1294-.7598 2.1444-1.5634 2.8733-.8036.7289-1.8092 1.1269-2.8466 1.1267H4.5c-1.19347 0-2.33807-.5268-3.18198-1.4645C.474106 25.5979 0 24.3261 0 23V2Zm23.4 20h.9c.2387 0 .4676-.1054.6364-.2929.1688-.1875.2636-.4419.2636-.7071V7c0-.26522-.0948-.51957-.2636-.70711C24.7676 6.10536 24.5387 6 24.3 6h-.9v16Z"/>
</svg>

<svg width="27" height="28" viewBox="0 0 27 28" fill="none" xmlns="http://www.w3.org/2000/svg">
<path d="M0 2C0 1.46957 0.189642 0.960859 0.527208 0.585786C0.864773 0.210714 1.32261 0 1.8 0H21.6C22.0774 0 22.5352 0.210714 22.8728 0.585786C23.2104 0.960859 23.4 1.46957 23.4 2V4H24.3C25.0161 4 25.7028 4.31607 26.2092 4.87868C26.7155 5.44129 27 6.20435 27 7V21C27 21.7956 26.7155 22.5587 26.2092 23.1213C25.7028 23.6839 25.0161 24 24.3 24H23.31C23.1025 25.1294 22.5502 26.1444 21.7466 26.8733C20.943 27.6022 19.9374 28.0002 18.9 28H4.5C3.30653 28 2.16193 27.4732 1.31802 26.5355C0.474106 25.5979 0 24.3261 0 23V2ZM23.4 22H24.3C24.5387 22 24.7676 21.8946 24.9364 21.7071C25.1052 21.5196 25.2 21.2652 25.2 21V7C25.2 6.73478 25.1052 6.48043 24.9364 6.29289C24.7676 6.10536 24.5387 6 24.3 6H23.4V22Z" fill="#2A2238"/>
</svg>
